X:25002
T:Year of Jubilo
T:Kingdom Coming; Jubilee
R:March
C:Trad.
O:USA
Z:Paul Hardy's Session Tunebook 2015 (see www.paulhardy.net). Creative Commons cc by-nc-sa licenced.
M:4/4
L:1/4
Q:1/4=140
K:D
F/E/|"D"DF FA|Af f/e/d/B/|AF d>F|"A7"E2-E F/E/|"D"DF FA|Af"G" f/e/d/B/|"D"Ad "A7"e>d|"D"d3:|
|:A|"G"B> ABc|d>e dB|"D"AF dF|"A7"E2-E F/E/|"D"DF FA|Af "G"f/e/d/B/|"D"Ad "A7"e>d|"D"d3:|

